!!!!SEGMENT: pl-sa--70-a-ii-10--001-003_pergolesi-giovanni-battista--stabat-mater-o-quam-tristis.krn
!!!cenid: 17xx:645
!!!COM: Pergolesi, Giovanni Battista
!!!COM-rismID: pe30002483
!!!CDT: 1710/01/04-1736/03
!!!CNT: Italian
!!!OPR: Stabat Mater
!!!OTL: O quam tristis
!!!OMV: 003
!!!PDT:
!!!AGN: Sacred
!!!YEC: Copyright 2022 Narodowy Instytut Fryderyka Chopina (https://polishscores.org)
!!!YEM: License CC-BY-4.0 (https://creativecommons.org/licenses/by/4.0)
!!!SMS-siglum: PL-SA
!!!SMS-shelfmark: 70/A II 10
!!!SMS-shelfwork: 001-003 M
!!!SMS-variant:
!!!SMS-altvar:
!!!NIFC-rismSourceID: 1001030091
!!!NIFC-rismChildID: 1001030091
!!!NIFC-islandoraID: none
!!!URL-pdf-islandora:
!!!URL-scan: https://bc.bdsandomierz.pl/dlibra/publication/1341/edition/1309/content @EN{Scan in the Sandomierz Diocese Digital Library} @PL{Skany w portalu Cyfrowa Biblioteka Diecezjalna w Sandomierzu}
!!!IIIF:
!!!ONB-nifc: UWAGA: części Stabat Mater: Stabat Mater, Cuius animam, O quam tristis, Quae moerebat, Quist est homo+Pro peccatis, Vidit suum, Eja mater, Fac ut ardeat, Sancta Mater, Fac ut portem, Inflammatus, Quando corpus+Amen
!!!AIN: 1 alto 1 organ 1 viola 2 violn 1 vox
!!!key:
**kern	**fba	**kern	**kern	**kern	**dynam	**kern	**text	**kern	**text
*group3	*	*group2	*group2	*group2	*	*group1	*	*group1	*
*part6	*	*part5	*part4	*part3	*	*part2	*	*part1	*
*staff6	*	*staff5	*staff4	*staff3	*	*staff2	*	*staff1	*
*Iorgan	*	*Iviola	*Ivioln	*Ivioln	*	*Ialto	*	*Ivox	*
*I"Organo	*	*I"alto Viola	*I"Violino 2do.	*I"Violino 1mo	*	*I"Alto	*	*I"Canto	*
*I'org	*	*I'a-vla	*I'vl 2	*I'vl 1	*	*I'A	*	*I'C	*
*clefF4	*	*clefC3	*clefG2	*clefG2	*	*clefC3	*	*clefC1	*
*k[b-e-]	*	*k[b-e-]	*k[b-e-]	*k[b-e-]	*	*k[b-e-]	*	*k[b-e-]	*
*g:	*	*g:	*g:	*g:	*	*g:	*	*g:	*
*M4/4	*	*M4/4	*M4/4	*M4/4	*	*M4/4	*	*M4/4	*
*met(c)	*	*met(c)	*met(c)	*met(c)	*	*met(c)	*	*met(c)	*
=1	=1	=1	=1	=1	=1	=1	=1	=1	=1
*2\right	*	*2\right	*2\right	*2\right	*	*2\right	*	*2\right	*
!LO:TX:a:t=Larghetto	!	!LO:TX:a:t=Larghetto	!LO:TX:a:t=Larghetto	!LO:TX:a:t=Larghetto	!	!LO:TX:a:t=Larghetto	!	!	!
!LO:TX:b:t=Oh quam trist	!	!LO:TX:b:t=Oh qam tristis	!LO:TX:b:t=Oh qam tristis	!LO:TX:b:t=Oh qam tristis	!	!	!	!	!
4G\	.	4g\	4b-\	4dd\	.	4b-\	oh	4dd\	oh
4G\	.	4g\	4b-\	4dd\	.	4b-\	quam	4dd\	quam
4G\	3 4#	4g\	4b-\	4cc#X\	.	4b-\	tris-	4cc#X\	tris-
4F#X\	6	4f#X\	4a\	4dd\	.	4a\	-tis	4dd\	-tiſ
=2	=2	=2	=2	=2	=2	=2	=2	=2	=2
2r	.	2r	8aa\L	8aa\L	.	2r	.	2r	.
.	.	.	8ff#X\	8ff#X\	.	.	.	.	.
.	.	.	8ee-X\	8ee-X\	.	.	.	.	.
.	.	.	8cc\J	8cc\J	.	.	.	.	.
4D\	7#	4d\	8a/L	8a/L	.	4f#X\	et	4cc\	et
.	.	.	8cc/	8cc/	.	.	.	.	.
4D\	.	4d\	8f#X/	8f#X/	.	4a\	af-	4cc\	af-
.	.	.	8cc/J	8cc/J	.	.	.	.	.
=3	=3	=3	=3	=3	=3	=3	=3	=3	=3
4G\	3 4	4g\	8cc/L	8cc/L	.	4a\	-flic-	4cc\	-flic-
.	.	.	8a/	8a/	.	.	.	.	.
4GG/	3	4G/	8b-/	8b-/	.	4g\	-ta	4b-\	-ta
.	.	.	8f#X/J	8f#X/J	.	.	.	.	.
2r	.	2r	8g/L	8g/L	.	2r	.	2r	.
.	.	.	8b-/	8b-/	.	.	.	.	.
.	.	.	8dd/	8dd/	.	.	.	.	.
.	.	.	8ff#X/J	8ff#X/J	.	.	.	.	.
!	!	!	!	!LO:LB:g=original	!	!	!	!	!
=4	=4	=4	=4	=4	=4	=4	=4	=4	=4
!	!	!	!	!LO:TX:a:t=P:problem= mixed beam	!	!	!	!	!
4C#X/	6	4c#X\	8gg\L	8gg\L	.	4b-\	et	4gg\	et
.	7	.	8bb-\	8bb-\	.	.	.	.	.
4C#/	.	4c#\	8gg\	8gg\	.	4g\	af-	4b-\	af-
.	.	.	8b-\J	8b-/J	.	.	.	.	.
2D/	6 4	2d;\	4g/	4g/	.	4g\	-flic-	4b-\	-flic-
.	3#	.	4f#X;/	4a;/	.	4f#X\	-ta	4a\	-ta
=5	=5	=5	=5	=5	=5	=5	=5	=5	=5
8r	.	8r	8dd\	8ff\	.	8dd\	fu-	8ff\	fu-
8BB-/L	.	8B-/L	4.dd\	4.ff\	.	4.dd\	-it	4.ff\	-it
8D/	.	8d/	.	.	.	.	.	.	.
8BB-/J	.	8B-/J	.	.	.	.	.	.	.
8r	.	8r	8cc\	8ee-\	.	8cc\	il-	8ee-\	il-
8C/L	6	8c/L	4.cc\	4.ee-\	.	4.cc\	-la	4.ee-\	-la
8AA/	.	8A/	.	.	.	.	.	.	.
8FF/J	.	8F/J	.	.	.	.	.	.	.
=6	=6	=6	=6	=6	=6	=6	=6	=6	=6
8r	.	8r	8b-\	8dd\	.	4b-\	be-	8dd\	Be-
8BB-/L	.	8B-/L	4bb-\	4bb-\	.	.	.	4bb-\	.
8D/	6	8d/	.	.	.	4b-\	-ne-	.	.
8En/J	.	8en/J	8b-\	8dd\	.	.	.	8dd\	-ne
4F\	6 4	4f\	8b-/L	8dd/L	.	8b-\	-dic-	8dd\	-dic-
.	3	.	8c/	8f/	.	8a\	-ta	8cc\	-ta
4r	.	4r	8f/	8a/	.	4r	.	4r	.
.	.	.	8a/J	8cc/J	.	.	.	.	.
!	!	!	!	!	!	!	!	!LO:LB:g=original	!
=7	=7	=7	=7	=7	=7	=7	=7	=7	=7
8r	.	8r	2cc\	2ee-\	.	2cc\	ma-	2ee-\	Ma-
8c\L	6 5	8cc\L	.	.	.	.	.	.	.
8A\	.	8a\	.	.	.	.	.	.	.
8F\J	.	8f\J	.	.	.	.	.	.	.
8r	.	8r	2b-\	2dd\	.	2b-\	-ter	2dd\	-ter
!LO:TX:a:t=P:problem= mixed beam	!	!	!	!	!	!	!	!	!
8B-\L	.	8b-\L	.	.	.	.	.	.	.
8D/	.	8f\	.	.	.	.	.	.	.
8BB-/J	6	8d\J	.	.	.	.	.	.	.
=8	=8	=8	=8	=8	=8	=8	=8	=8	=8
2E-\	.	2e-\	4r	4r	.	8r	.	8r	.
.	.	.	.	.	.	8g\	u-	8ee-\L	u-
*	*	*	*Xtuplet	*Xtuplet	*	*	*	*	*
!	!	!	!O:TX:a:t=P:problem=brak oznaczenia trioli	!LO:TX:a:t=P:problem=brak oznaczenia trioli	!	!	!	!	!
.	.	.	12g/L	12ee-\L	.	8f\L	-ni-	8dd\J	.
.	.	.	12f/	12dd\	.	.	.	.	.
.	.	.	.	.	.	8e-\J	.	8cc\	-ni-
.	.	.	12e-/J	12cc\J	.	.	.	.	.
!	!	!	!	!	!	!LO:LB:g=original	!	!	!
8r	.	8r	4d/	4b-/	.	32d/LLL	-ge-	4b-\	-ge-
.	.	.	.	.	.	32c/JJ	.	.	.
.	.	.	.	.	.	8.B-/J	.	.	.
8B-\L	.	8b-\L	.	.	.	.	.	.	.
8E-\	.	8e-\	4c/	4a/	.	4c/	-ni-	8.a\	-ni-
8F\J	.	8f\J	.	.	.	.	.	.	.
.	.	.	.	.	.	.	.	8qqa/	.
.	.	.	.	.	.	.	.	16b-\	.
!LO:LB:g=original	!	!	!	!	!	!	!	!	!
=9	=9	=9	=9	=9	=9	=9	=9	=9	=9
4BB-/	.	4B-/	8r	8r	.	4B-/	-ti	4b-\	-ti
.	.	.	8B-/L	8d/L	.	.	.	.	.
4r	.	4r	8d/	8f/	.	4r	.	4r	.
.	.	.	8f/J	8b-/J	.	.	.	.	.
8r	.	8r	2cc\	2ee-\	.	2cc\	ma-	2ee-\	Ma-
8c\L	.	8cc\L	.	.	.	.	.	.	.
8A\	.	8a\	.	.	.	.	.	.	.
8F\J	.	8f\J	.	.	.	.	.	.	.
=10	=10	=10	=10	=10	=10	=10	=10	=10	=10
8r	.	8r	2b-\	2dd\	.	2b-\	-ter	2dd\	-ter
8BB-/L	.	8B-\L	.	.	.	.	.	.	.
8D/	.	8d\	.	.	.	.	.	.	.
8BB-/J	.	8B-\J	.	.	.	.	.	.	.
2E-\	.	2e-\	8r	8r	.	8r	.	8r	.
.	.	.	8ee-\L	8gg\L	.	8ee-\L	u-	8gg\L	u-
.	.	.	8dd\	8ff\	.	8dd\J	.	8ff\J	.
.	.	.	8cc\J	8ee-\J	.	8cc\	-ni-	8ee-\	-ni-
!	!	!	!LO:LB:g=original	!	!	!	!	!	!
=11	=11	=11	=11	=11	=11	=11	=11	=11	=11
8r	.	8r	4b-/	4dd\	.	4b-\	-ge-	32dd\LLL	-ge-
.	.	.	.	.	.	.	.	32cc\JJ	.
.	.	.	.	.	.	.	.	8.b-\J	.
8B-\L	.	8b-\L	.	.	.	.	.	.	.
8E-\	.	8e-\	4a/	4cc\	.	8.na\	-ni-	4cc\	-ni-
8F\J	.	8f\J	.	.	.	.	.	.	.
.	.	.	.	.	.	16b-\	.	.	.
!	!	!	!	!	!LO:DY:b:t=f&colon;	!	!	!	!
4BB-/	.	4B-/	8b-/	8b-/	f	4b-\	-ti	4b-\	-ti
.	.	.	4bb-\	4bb-\	.	.	.	.	.
4D/	6	4d/	.	.	.	4r	.	4r	.
.	.	.	8bb-\	8bb-\	.	.	.	.	.
!	!	!LO:LB:g=original	!	!	!	!	!	!	!
=12	=12	=12	=12	=12	=12	=12	=12	=12	=12
!	!	!	!	!	!	!LO:TX:a:t=2	!	!	!
4C/	6	4c\	8bb-\L	8bb-\L	.	0r	.	0r	.
.	.	.	16aa'\L	16aa\L	.	.	.	.	.
.	.	.	16gg\JJ	16gg\JJ	.	.	.	.	.
8C/L	6 4	8c/L	8ff\L	8ff\L	.	.	.	.	.
8BB-/J	4 2	8B-/J	8een\J	8een\J	.	.	.	.	.
8AA/L	6	8A/L	8ff\L	8.ff\L	.	.	.	.	.
8BB-/	6	8B-/	8gg\J	.	.	.	.	.	.
.	.	.	.	16gg\Jk	.	.	.	.	.
8AA/	6	8A/	16ff\LL	16ff\LL	.	.	.	.	.
.	.	.	16ee-X\	16ee-X\	.	.	.	.	.
8E-/J	6	8e-/J	16dd\	16dd\	.	.	.	.	.
.	.	.	16cc\JJ	16cc\JJ	.	.	.	.	.
=13	=13	=13	=13	=13	=13	=13	=13	=13	=13
8D\L	6	8d\L	8.b-\L	8.b-\L	.	.	.	.	.
8G\	.	8g\	.	.	.	.	.	.	.
.	.	.	32a\LL	32a\LL	.	.	.	.	.
.	.	.	32b-\JJJ	32b-\JJJ	.	.	.	.	.
8C\	.	8c\	8.cc\L	8.cc\L	.	.	.	.	.
8D\J	.	8d\J	.	.	.	.	.	.	.
.	.	.	16a\Jk	16a\Jk	.	.	.	.	.
4BB-/	.	4B-/	8B-/L	8B-/L	.	.	.	.	.
.	.	.	8f/J	8f/J	.	.	.	.	.
4r	.	4r	4b-/	4b-/	.	.	.	.	.
!	!	!	!	!LO:LB:g=original	!	!	!	!	!
=14	=14	=14	=14	=14	=14	=14	=14	=14	=14
!	!	!	!	!	!LO:DY:b:t=p&colon;	!	!	!	!
4B-\	.	4b-\	4dd\	4ff\	p	4dd\	oh	4ff\	oh
4B-\	.	4b-\	4dd\	4ff\	.	4dd\	quam	4ff\	quam
!	!	!	!	!	!LO:DY:b:t=for	!	!	!	!
4A\	6|	4a\	4cc\	4ff#X\	f	4cc\	tris-	4ff#X\	tris-
4G\	.	4g\	4b-\	4gg\	.	4b-\	-tis	4gg\	-tiſ
=15	=15	=15	=15	=15	=15	=15	=15	=15	=15
2r	.	2r	8g\L	8g\L	.	2r	.	2r	.
.	.	.	8b-\	8b-\	.	.	.	.	.
.	.	.	8dd\	8dd\	.	.	.	.	.
.	.	.	8ff#X\J	8ff#X\J	.	.	.	.	.
!	!	!	!LO:TX:a:t=P:problem= mixed beam	!LO:TX:a:t=P:problem= mixed beam	!	!	!	!	!
4C#X/	6	4c#X\	8gg\L	8gg\L	.	4b-\	et	4gg\	et
.	7	.	8bb-\	8bb-\	.	.	.	.	.
4C#/	.	4c#\	8b-/	8b-\	.	4g\	af-	4b-\	af-
.	.	.	8g/J	8g/J	.	.	.	.	.
=16	=16	=16	=16	=16	=16	=16	=16	=16	=16
1D	6 4	1d	4g/	4b-/	.	4g\	-fli-	4b-\	-fli-
.	#	.	4f#X/	4a/	.	4f#X\	-cat	4a\	-cat
.	.	.	2dd\	2ddd\	.	4d\	fu-	4dd\	fu-
.	.	.	.	.	.	4d\	-it	4dd\	-it
!	!	!	!	!	!	!	!	!LO:LB:g=original	!
=17	=17	=17	=17	=17	=17	=17	=17	=17	=17
!LO:TX:b:i:t=Test Solo	!	!	!	!	!	!	!	!	!
1D	.	1d	4ee-X\	4ddd\	.	4e-\	il-	4dd\	il-
.	.	.	4een\	2ccc\	.	4en\	-la	4cc\	-la
!	!	!	!	!	!	!LO:LB:g=original	!	!	!
.	.	.	2ff#X\	.	.	4f#X\	be-	4aa\	Be-
.	.	.	.	4ccc\	.	4f#\	-ne-	4cc\	-ne-
=18	=18	=18	=18	=18	=18	=18	=18	=18	=18
2D\	.	2d\	2gg\	4ccc\	.	4g\	-dic-	4cc\	-dic-
.	.	.	.	4bb-\	.	4g\	-ta	4b-\	-ta
2C#X\	7	2c#X\	8gg\L	8bb-\L	.	4b-\	be-	4gg\	be-
.	.	.	8gg\	8bb-\	.	.	.	.	.
.	.	.	8b-\	8dd\	.	4g\	-ne-	4b-\	-ne-
.	.	.	8g\J	8b-\J	.	.	.	.	.
=19	=19	=19	=19	=19	=19	=19	=19	=19	=19
4D\	6 4	4d\	8g/L	8b-/L	.	8g\	-dic-	8b-\	-dic-
.	3#	.	8f#X/J	8a/J	.	8f#X\	-ta	8a\	-ta
!	!	!	!LO:TX:a:t=P:problem= niepełna miara taktu, brak pauzy w środku taktu	!	!	!	!	!	!
4r	.	4r	4ryy	4r	.	4r	.	4r	.
8r	.	8r	2a/	2cc\	.	2a\	ma-	2cc\	ma-
8A\L	6|	8a\L	.	.	.	.	.	.	.
8F#y\	.	8f#X\	.	.	.	.	.	.	.
8D\J	.	8d\J	.	.	.	.	.	.	.
!LO:LB:g=original	!	!	!LO:LB:g=original	!	!	!	!	!	!
=20	=20	=20	=20	=20	=20	=20	=20	=20	=20
8r	.	8r	2g/	2b-\	.	2g\	-ter	2b-\	-ter
8G\L	.	8g\L	.	.	.	.	.	.	.
8B-\	.	8b-\	.	.	.	.	.	.	.
8G\J	.	8g\J	.	.	.	.	.	.	.
2E-\	.	2e-\	8r	8r	.	8r	.	8r	.
.	.	.	8cc\L	8ee-\L	.	8cc\L	u-	8ee-\L	u-
.	.	.	8b-\	8dd\	.	8b-\J	.	8dd\J	.
.	.	.	8a\J	8cc\J	.	8a\	-ni-	8cc\	-ni-
=21	=21	=21	=21	=21	=21	=21	=21	=21	=21
8r	.	8r	4g/	4b-/	.	4g\	-ge-	4b-\	-ge-
8E-\L	.	8e-\L	.	.	.	.	.	.	.
8C\	6 5	8c\	4f#X/	4a/	.	8.f#X\	-ni-	8.a\	-ni-
8D\J	.	8d\J	.	.	.	.	.	.	.
.	.	.	.	.	.	16g\	.	16g\	.
4GG/	.	4G/	8g/L	8g/L	.	4g\	-ti	4g\	-ti
.	.	.	8G/	8B-/	.	.	.	.	.
4r	.	4r	8B-/	8d/	.	4r	.	4r	.
.	.	.	8d/J	8g/J	.	.	.	.	.
=22	=22	=22	=22	=22	=22	=22	=22	=22	=22
!	!	!	!	!	!LO:DY:b:t=f&colon;	!	!	!	!
8r	.	8r	2a/	2cc\	f	2a\	ma-	2cc\	ma-
8A\L	6|	8a\L	.	.	.	.	.	.	.
8F#y\	.	8f#X\	.	.	.	.	.	.	.
8D\J	.	8d\J	.	.	.	.	.	.	.
8r	.	8r	2g/	2b-\	.	2g\	-ter	2b-\	-ter
8G\L	.	8g\L	.	.	.	.	.	.	.
8B-\	.	8b-\	.	.	.	.	.	.	.
8G\J	.	8g\J	.	.	.	.	.	.	.
=23	=23	=23	=23	=23	=23	=23	=23	=23	=23
2G\	.	2e-\	8r	8r	.	8r	.	8r	.
!	!	!	!	!	!LO:DY:b:t=p&colon;	!	!	!	!
.	.	.	8cc\L	8ee-\L	p	8cc\L	u-	8ee-\L	u-
.	.	.	8b-\	8dd\	.	8b-\J	.	8dd\J	.
.	.	.	8a\J	8cc\J	.	8a\	-ni	8cc\	-ni
2D\	6 4	2d\	4g/	4b-/	.	4g\	ge-	4b-\	ge-
.	3#	.	4f#X/	4a/	.	8.f#X\	.	8.a\	.
.	.	.	.	.	.	16g\	-ni-	16g\	-ni-
=24	=24	=24	=24	=24	=24	=24	=24	=24	=24
4GG/	.	4G/	8g/	8g/	.	4g\	-ti	4g\	-ti
.	.	.	4gg\	4gg\	.	.	.	.	.
4B-\	6	4b-\	.	.	.	4r	.	4r	.
.	.	.	8gg\	8gg\	.	.	.	.	.
4.A\	6 4	4.a\	8gg\L	8gg\L	.	2r	.	2r	.
.	#	.	16ff\L	16ff\L	.	.	.	.	.
.	.	.	16ee-\JJ	16ee-\JJ	.	.	.	.	.
.	.	.	8dd\L	8dd\L	.	.	.	.	.
8G\	4	8g\	8cc#X\J	8cc#X\J	.	.	.	.	.
.	#	.	.	.	.	.	.	.	.
!	!	!LO:LB:g=original	!	!	!	!	!	!	!
=25	=25	=25	=25	=25	=25	=25	=25	=25	=25
8F#X\L	6	8f#X\L	8.dd\L	8.dd\L	.	0r	.	0r	.
8G\	6	8g\	.	.	.	.	.	.	.
.	.	.	16ee-\Jk	16ee-\Jk	.	.	.	.	.
!	!	!	!	!LO:LB:g=original	!	!	!	!	!
8F#\	6	8f#\	16.dd\LL	16.dd\LL	.	.	.	.	.
.	.	.	32cc\K	32ccn\K	.	.	.	.	.
8D\J	6	8d\J	16.b-\	16.b-\	.	.	.	.	.
.	.	.	32a\JJk	32a\JJk	.	.	.	.	.
8BB-/L	6	8B-\L	8.g/L	8.g/L	.	.	.	.	.
8E-/	.	8e-\	.	.	.	.	.	.	.
.	.	.	16a/Jk	16a/Jk	.	.	.	.	.
8C/	6 5	8c\	4a/	4at/	.	.	.	.	.
8D/J	#	8d\J	.	.	.	.	.	.	.
=26	=26	=26	=26	=26	=26	=26	=26	=26	=26
4GG/	.	4G/	8g/L	8g/L	.	.	.	.	.
.	.	.	8d/J	8d/J	.	.	.	.	.
4r	.	4r	4G/	4G/	.	.	.	.	.
2r	.	2r	2r	2r	.	.	.	.	.
==	==	==	==	==	==	==	==	==	==
*-	*-	*-	*-	*-	*-	*-	*-	*-	*-
!!!system-decoration: [(g1)][(g2)][(g3)]
!!!ENC: Anna Matuszewska
!!!END: 2020-11-29
!!!ENC: Tomasz Grochalski
!!!END: 2020-06-09
